lib/flags/s/UZB.svg

<svg xmlns="http://www.w3.org/2000/svg" fill="none" viewBox="0 0 16 12"><mask id="UZB_svg__a" width="16" height="12" x="0" y="0" mask-type="alpha" maskUnits="userSpaceOnUse"><path fill="#fff" d="M0 0H16V12H0z"/></mask><g mask="url(#UZB_svg__a)"><path fill="#14DC5A" fill-rule="evenodd" d="M0 8H16V12H0V8Z" clip-rule="evenodd"/><path fill="#0099B5" fill-rule="evenodd" d="M0 0H16V5H0V0Z" clip-rule="evenodd"/><path fill="#F7FCFF" stroke="#C51918" stroke-width=".75" d="M-1 4.625H-1.375V5V8V8.375H-1H17H17.375V8V5V4.625H17H-1Z"/><path fill="#F7FCFF" fill-rule="evenodd" d="M8.36368 1.20037L7.87233 1.47911L8.01266 0.912599L7.542 0.496301H8.15675L8.36294 -0.0397949L8.6047 0.496301H9.12877L8.717 0.912599L8.91499 1.47911L8.36368 1.20037ZM5.84477 2.73755L6.33611 2.45881L6.88742 2.73755L6.68943 2.17104L7.1012 1.75474H6.57714L6.33537 1.21865L6.12919 1.75474H5.51443L5.9851 2.17104L5.84477 2.73755ZM4.48827 3.7765L3.99693 4.05525L4.13726 3.48873L3.66659 3.07244H4.28134L4.48753 2.53634L4.7293 3.07244H5.25336L4.84159 3.48873L5.03958 4.05525L4.48827 3.7765ZM6.36441 3.77868L5.87306 4.05742L6.01339 3.49091L5.54272 3.07461H6.15748L6.36367 2.53851L6.60543 3.07461H7.1295L6.71773 3.49091L6.91572 4.05742L6.36441 3.77868ZM8.36441 3.77868L7.87306 4.05742L8.01339 3.49091L7.54272 3.07461H8.15748L8.36367 2.53851L8.60543 3.07461H9.1295L8.71773 3.49091L8.91572 4.05742L8.36441 3.77868ZM7.84477 2.73755L8.33611 2.45881L8.88742 2.73755L8.68943 2.17104L9.1012 1.75474H8.57714L8.33537 1.21865L8.12919 1.75474H7.51443L7.9851 2.17104L7.84477 2.73755ZM9.87306 4.05742L10.3644 3.77868L10.9157 4.05742L10.7177 3.49091L11.1295 3.07461H10.6054L10.3637 2.53851L10.1575 3.07461H9.54272L10.0134 3.49091L9.87306 4.05742ZM10.3361 2.45881L9.84477 2.73755L9.9851 2.17104L9.51443 1.75474H10.1292L10.3354 1.21865L10.5771 1.75474H11.1012L10.6894 2.17104L10.8874 2.73755L10.3361 2.45881ZM9.87233 1.47911L10.3637 1.20037L10.915 1.47911L10.717 0.912599L11.1288 0.496301H10.6047L10.3629 -0.0397949L10.1568 0.496301H9.542L10.0127 0.912599L9.87233 1.47911ZM12.3644 3.77868L11.8731 4.05742L12.0134 3.49091L11.5427 3.07461H12.1575L12.3637 2.53851L12.6054 3.07461H13.1295L12.7177 3.49091L12.9157 4.05742L12.3644 3.77868ZM11.8448 2.73755L12.3361 2.45881L12.8874 2.73755L12.6894 2.17104L13.1012 1.75474H12.5771L12.3354 1.21865L12.1292 1.75474H11.5144L11.9851 2.17104L11.8448 2.73755ZM12.3637 1.20037L11.8723 1.47911L12.0127 0.912599L11.542 0.496301H12.1568L12.3629 -0.0397949L12.6047 0.496301H13.1288L12.717 0.912599L12.915 1.47911L12.3637 1.20037ZM2.94245 4.12022C2.94245 4.12022 1.73453 3.79261 1.75727 2.58086C1.78002 1.36912 3 1.05452 3 1.05452C2.50151 0.865747 1.02757 1.11905 1.00036 2.56858C0.973155 4.01811 2.47796 4.30367 2.94245 4.12022Z" clip-rule="evenodd"/></g></svg>

<svg xmlns="http://www.w3.org/2000/svg" fill="none" viewBox="0 0 16 12"><mask id="UZB_svg__a" width="16" height="12" x="0" y="0" maskUnits="userSpaceOnUse"><path fill="#fff" d="M0 0h16v12H0z"/></mask><g mask="url(#UZB_svg__a)"><path fill="#14DC5A" fill-rule="evenodd" d="M0 8h16v4H0V8z" clip-rule="evenodd"/><path fill="#0099B5" fill-rule="evenodd" d="M0 0h16v5H0V0z" clip-rule="evenodd"/><path fill="#F7FCFF" stroke="#C51918" stroke-width=".75" d="M-1 4.625h-.375v3.75h18.75v-3.75H-1z"/><path fill="#F7FCFF" fill-rule="evenodd" d="M8.364 1.2l-.492.28.14-.567-.47-.417h.615l.206-.536.242.536h.524l-.412.417.198.566-.551-.279zm-2.52 1.538l.492-.28.551.28-.198-.567.412-.416h-.524l-.242-.536-.206.536h-.615l.471.416-.14.567zM4.489 3.777l-.491.278.14-.566-.47-.417h.614l.207-.536.241.536h.524l-.411.417.198.566-.552-.278zm1.876.002l-.49.278.14-.566-.471-.416h.614l.207-.536.241.536h.524l-.411.416.198.566-.552-.278zm2 0l-.49.278.14-.566-.471-.416h.614l.207-.536.241.536h.524l-.411.416.198.566-.552-.278zm-.52-1.041l.492-.28.551.28-.198-.567.412-.416h-.524l-.242-.536-.206.536h-.615l.471.416-.14.567zm2.03 1.32l.49-.28.552.28-.198-.567.412-.416h-.525l-.241-.536-.207.536h-.614l.47.416-.14.566zm.462-1.6l-.491.28.14-.567-.47-.416h.614l.206-.536.242.536h.524l-.412.416.198.567-.55-.28zm-.464-.979l.492-.279.551.28-.198-.567.412-.417h-.524l-.242-.536-.206.536h-.615l.47.417-.14.566zm2.492 2.3l-.49.278.14-.566-.471-.416h.615l.206-.536.241.536h.524l-.411.416.198.566-.552-.278zm-.52-1.041l.492-.28.551.28-.198-.567.412-.416h-.524l-.242-.536-.206.536h-.615l.471.416-.14.567zm.52-1.538l-.492.28.14-.567-.47-.417h.615l.206-.536.242.536h.524l-.412.417.198.566-.551-.279zM2.942 4.12s-1.207-.327-1.185-1.54C1.78 1.37 3 1.056 3 1.056c-.498-.19-1.972.064-2 1.514-.027 1.45 1.478 1.735 1.942 1.551z" clip-rule="evenodd"/></g></svg>
